X:447
T: Muma xinli lekaihua
N: C2064
O: China, Zhejiang Juxian
S: III, 608]
R: Xiaodiao]
M: 2/4
L: 1/16
K: Bb
d2b2c3d | f2d2c4
c2bgc2d2 | b2Bgf4
f3gb2d2 | cbg2b3g
c2d2f2g2 | b2bgf4
d2b2c2d2 | f2fdc4
c2b2g2b2 | b2bgf4
f3gb2d2 | c2b2g4
c2b2g2b2 | b2bgf4
d2b2c3d | f2d2c4
c2bgc2d2 | b2bgf4
f3gb2d2 | cbg2b3g
c3df2g2 | b2bgf4

